X: 3373
T: POOR MARY ANN
N: aka All Through the Night
%R: air, march
B: James Kerr "Merry Melodies" v.3 p.41 #373
Z: 2016 John Chambers <jc:trillian.mit.edu>
M: 2/4
L: 1/8
K: D
|:\
d>cBd | e>dcA | B2c>d | d3 A |\
d>cBd | (e/f/)e/d/ cA | B2c>d | d3z ::\
g>fga | bagf | gfed | fedc |\
d>cBd | e>dcA | B2c>d | d3z :|

%%sep 1 1 500
%%sep 1 1 500

